X:20
T:Amuse A Muse
C:Andy Hall - Squareneck Soul
N:mandolin: Sierra Hull - TablEdited by Philippe Colleu
L:1/8
Q:1/4=115
M:4/4
K:C
(3a2^g2 =g2 | (3"Dm"f2a2 ^g2 (3=g2f2 a2 | (3^g2=g2 f2 (3a2^g2 =g2 | 
"A7"f/g/f e^c ec AG | ^cG A/c/A GA (3cdG | "Gm"_BG AF GD FC | DC _B,A, G,A,/B,/ A,G, | 
"A7"A,^G, A,2 ^C=C ^C2 | E^C EG FE CE | "Dm"DE Fd zF Ge | zF Af za zc' | "A7"b3c' bc' bc' | 
b/c'/b az2a ga | "Gm"fa/f/ ef de cd | ad cg {G}Ae Gd | "A7"Fc EA DA, CF | E/F/E DE (3FED (3EDC | 
"Bb"_B,8 | 


